packages/sources/icons/src/vitamix/thumb-down-fill.svg

<svg width="16" height="16" viewBox="0 0 16 16" fill="none" xmlns="http://www.w3.org/2000/svg">
<path fill-rule="evenodd" clip-rule="evenodd" d="M6.87133 15.1287L11.138 10.862C11.263 10.737 11.3333 10.5675 11.3333 10.3907V2.66667C11.3333 2.29848 11.0349 2 10.6667 2H3.44667C3.17656 2.00027 2.93331 2.16349 2.83067 2.41333L0.766667 7.42267C0.700461 7.58384 0.666487 7.75643 0.666665 7.93067V9.33333C0.666665 10.0697 1.26362 10.6667 2 10.6667H6.26667L5.498 13.6867C5.39828 14.078 5.54371 14.4909 5.86667 14.7333L6.43533 15.16C6.56818 15.2596 6.75409 15.2462 6.87133 15.1287ZM12.6667 10H14.6667C15.0349 10 15.3333 9.70152 15.3333 9.33333V2.66667C15.3333 2.29848 15.0349 2 14.6667 2H12.6667V10Z" fill="#001018"/>
</svg>

<svg width="16" height="16" fill="none" xmlns="http://www.w3.org/2000/svg"><path fill-rule="evenodd" clip-rule="evenodd" d="m6.871 15.129 4.267-4.267a.667.667 0 0 0 .195-.471V2.667A.667.667 0 0 0 10.667 2h-7.22a.667.667 0 0 0-.616.413L.767 7.423c-.067.16-.1.333-.1.508v1.402c0 .737.597 1.334 1.333 1.334h4.267l-.769 3.02a1 1 0 0 0 .369 1.046l.568.427c.133.1.32.086.436-.031zM12.667 10h2a.667.667 0 0 0 .666-.667V2.667A.667.667 0 0 0 14.667 2h-2v8z" fill="#001018"/></svg>
